app/images/pulsar-logo.svg

<svg width="436" height="48" viewBox="0 0 436 48" fill="none" xmlns="http://www.w3.org/2000/svg">
<mask id="path-1-inside-1_10_17" fill="white">
<path d="M8.51229 0H59.6775C64.9996 0 69.0576 2.14725 71.8513 6.44175C72.91 8.70829 73.2637 10.8555 72.9122 12.8835L71.3694 21.7856C70.62 26.11 67.6282 29.7633 62.394 32.7456C59.4649 34.1174 56.685 34.8034 54.0541 34.8034H17.8121L15.5639 47.7763C15.538 47.9254 15.4495 48 15.2983 48H0.193691C0.0424936 48 -0.020184 47.9254 0.00565821 47.7763L8.24673 0.223672C8.30281 0.0745573 8.39133 0 8.51229 0ZM21.8668 11.4073L19.7891 23.3961H49.3179C52.4628 23.3961 54.6938 22.0391 56.0108 19.3253C56.2403 18.699 56.4067 18.0876 56.5101 17.4911C57.0115 14.5983 56.1201 12.6747 53.8361 11.7204C53.1163 11.5116 52.3633 11.4073 51.5771 11.4073H21.8668Z"/>
<path d="M79.9077 0H95.0123C95.1583 0.0298229 95.221 0.10438 95.2003 0.223672L90.3782 28.0485C89.6494 32.2535 91.0337 34.9972 94.5309 36.2796C95.3362 36.5182 96.1018 36.6375 96.8275 36.6375H124.587L130.898 0.223672C130.954 0.0745573 131.043 0 131.164 0H146.314C146.46 0.0298229 146.522 0.10438 146.502 0.223672L138.261 47.7763C138.235 47.9254 138.146 48 137.995 48H86.1494C81.7344 48 78.1035 46.1808 75.2565 42.5424C73.6992 40.1864 73.1506 37.6813 73.6106 35.027L79.6421 0.223672C79.6982 0.0745573 79.7867 0 79.9077 0Z"/>
<path d="M151.303 0H166.408C166.554 0.0298229 166.616 0.10438 166.596 0.223672L160.285 36.6375H211.36C211.511 36.6375 211.576 36.6971 211.555 36.8164L209.656 47.7763C209.63 47.9254 209.542 48 209.39 48H142.984C142.833 48 142.771 47.9254 142.796 47.7763L151.038 0.223672C151.094 0.0745573 151.182 0 151.303 0Z"/>
<path d="M237.622 0H289.104C289.25 0.0298229 289.313 0.10438 289.292 0.223672L287.393 11.1836C287.367 11.3327 287.279 11.4073 287.127 11.4073H239.999C237.312 11.7353 235.779 12.9879 235.402 15.165C235.148 16.6263 235.759 17.7297 237.232 18.4753C237.68 18.6841 238.236 18.7884 238.901 18.7884H270.925C275.431 18.7884 279.117 20.548 281.985 24.0671C283.683 26.4828 284.294 29.0624 283.819 31.8062L283.245 35.1165C282.434 39.7987 279.011 43.5862 272.975 46.479C270.501 47.493 268.055 48 265.636 48H214.38C214.229 48 214.166 47.9254 214.192 47.7763L216.091 36.8164C216.142 36.6971 216.228 36.6375 216.349 36.6375H263.251C265.156 36.6375 266.616 35.8024 267.631 34.1323C267.876 33.4166 268.009 32.9991 268.029 32.8798C268.288 31.3886 267.695 30.2703 266.252 29.5247C265.805 29.3159 265.233 29.2116 264.537 29.2116H232.967C227.766 29.2116 223.758 27.2134 220.943 23.2171C219.657 21.0401 219.223 18.7437 219.642 16.3281L220.216 13.0177C220.975 8.63374 224.068 5.01025 229.493 2.14725C232.528 0.864865 235.237 0.149115 237.622 0Z"/>
<path d="M322.489 0H337.956C338.212 0.268406 340.495 5.50233 344.806 15.7018C353.522 36.2498 358.057 46.986 358.411 47.9105L358.395 48H340.524C340.173 47.5825 336.241 38.4268 328.728 20.5331C327.8 18.3858 327.305 17.3122 327.245 17.3122C311.832 37.3234 303.921 47.5527 303.511 48H285.548L285.587 47.7763C309.312 16.9692 321.612 1.0438 322.489 0Z"/>
<path d="M371.477 0H422.733C427.39 0 431.152 1.75955 434.019 5.27866C435.718 7.69431 436.324 10.3038 435.838 13.1072L434.334 21.7856C433.553 26.2889 430.397 30.0168 424.866 32.9692L422.768 33.8192L429.806 47.9105L429.564 48H411.148C410.782 47.493 408.536 43.0941 404.409 34.8034H380.777L378.528 47.7763C378.502 47.9254 378.414 48 378.263 48H363.158C363.007 48 362.944 47.9254 362.97 47.7763L371.211 0.223672C371.267 0.0745573 371.356 0 371.477 0ZM384.831 11.4073L382.754 23.3961H412.282C415.427 23.3961 417.658 22.0391 418.975 19.3253C419.205 18.699 419.371 18.0876 419.475 17.4911C419.976 14.5983 419.085 12.6747 416.801 11.7204C416.081 11.5116 415.328 11.4073 414.542 11.4073H384.831Z"/>
</mask>
<g filter="url(#filter0_i_10_17)">
<path d="M8.51229 0H59.6775C64.9996 0 69.0576 2.14725 71.8513 6.44175C72.91 8.70829 73.2637 10.8555 72.9122 12.8835L71.3694 21.7856C70.62 26.11 67.6282 29.7633 62.394 32.7456C59.4649 34.1174 56.685 34.8034 54.0541 34.8034H17.8121L15.5639 47.7763C15.538 47.9254 15.4495 48 15.2983 48H0.193691C0.0424936 48 -0.020184 47.9254 0.00565821 47.7763L8.24673 0.223672C8.30281 0.0745573 8.39133 0 8.51229 0ZM21.8668 11.4073L19.7891 23.3961H49.3179C52.4628 23.3961 54.6938 22.0391 56.0108 19.3253C56.2403 18.699 56.4067 18.0876 56.5101 17.4911C57.0115 14.5983 56.1201 12.6747 53.8361 11.7204C53.1163 11.5116 52.3633 11.4073 51.5771 11.4073H21.8668Z" fill="#05C8FE"/>
<path d="M79.9077 0H95.0123C95.1583 0.0298229 95.221 0.10438 95.2003 0.223672L90.3782 28.0485C89.6494 32.2535 91.0337 34.9972 94.5309 36.2796C95.3362 36.5182 96.1018 36.6375 96.8275 36.6375H124.587L130.898 0.223672C130.954 0.0745573 131.043 0 131.164 0H146.314C146.46 0.0298229 146.522 0.10438 146.502 0.223672L138.261 47.7763C138.235 47.9254 138.146 48 137.995 48H86.1494C81.7344 48 78.1035 46.1808 75.2565 42.5424C73.6992 40.1864 73.1506 37.6813 73.6106 35.027L79.6421 0.223672C79.6982 0.0745573 79.7867 0 79.9077 0Z" fill="#05C8FE"/>
<path d="M151.303 0H166.408C166.554 0.0298229 166.616 0.10438 166.596 0.223672L160.285 36.6375H211.36C211.511 36.6375 211.576 36.6971 211.555 36.8164L209.656 47.7763C209.63 47.9254 209.542 48 209.39 48H142.984C142.833 48 142.771 47.9254 142.796 47.7763L151.038 0.223672C151.094 0.0745573 151.182 0 151.303 0Z" fill="#05C8FE"/>
<path d="M237.622 0H289.104C289.25 0.0298229 289.313 0.10438 289.292 0.223672L287.393 11.1836C287.367 11.3327 287.279 11.4073 287.127 11.4073H239.999C237.312 11.7353 235.779 12.9879 235.402 15.165C235.148 16.6263 235.759 17.7297 237.232 18.4753C237.68 18.6841 238.236 18.7884 238.901 18.7884H270.925C275.431 18.7884 279.117 20.548 281.985 24.0671C283.683 26.4828 284.294 29.0624 283.819 31.8062L283.245 35.1165C282.434 39.7987 279.011 43.5862 272.975 46.479C270.501 47.493 268.055 48 265.636 48H214.38C214.229 48 214.166 47.9254 214.192 47.7763L216.091 36.8164C216.142 36.6971 216.228 36.6375 216.349 36.6375H263.251C265.156 36.6375 266.616 35.8024 267.631 34.1323C267.876 33.4166 268.009 32.9991 268.029 32.8798C268.288 31.3886 267.695 30.2703 266.252 29.5247C265.805 29.3159 265.233 29.2116 264.537 29.2116H232.967C227.766 29.2116 223.758 27.2134 220.943 23.2171C219.657 21.0401 219.223 18.7437 219.642 16.3281L220.216 13.0177C220.975 8.63374 224.068 5.01025 229.493 2.14725C232.528 0.864865 235.237 0.149115 237.622 0Z" fill="#05C8FE"/>
<path d="M322.489 0H337.956C338.212 0.268406 340.495 5.50233 344.806 15.7018C353.522 36.2498 358.057 46.986 358.411 47.9105L358.395 48H340.524C340.173 47.5825 336.241 38.4268 328.728 20.5331C327.8 18.3858 327.305 17.3122 327.245 17.3122C311.832 37.3234 303.921 47.5527 303.511 48H285.548L285.587 47.7763C309.312 16.9692 321.612 1.0438 322.489 0Z" fill="#05C8FE"/>
<path d="M371.477 0H422.733C427.39 0 431.152 1.75955 434.019 5.27866C435.718 7.69431 436.324 10.3038 435.838 13.1072L434.334 21.7856C433.553 26.2889 430.397 30.0168 424.866 32.9692L422.768 33.8192L429.806 47.9105L429.564 48H411.148C410.782 47.493 408.536 43.0941 404.409 34.8034H380.777L378.528 47.7763C378.502 47.9254 378.414 48 378.263 48H363.158C363.007 48 362.944 47.9254 362.97 47.7763L371.211 0.223672C371.267 0.0745573 371.356 0 371.477 0ZM384.831 11.4073L382.754 23.3961H412.282C415.427 23.3961 417.658 22.0391 418.975 19.3253C419.205 18.699 419.371 18.0876 419.475 17.4911C419.976 14.5983 419.085 12.6747 416.801 11.7204C416.081 11.5116 415.328 11.4073 414.542 11.4073H384.831Z" fill="#05C8FE"/>
</g>
<path d="M8.51229 0H59.6775C64.9996 0 69.0576 2.14725 71.8513 6.44175C72.91 8.70829 73.2637 10.8555 72.9122 12.8835L71.3694 21.7856C70.62 26.11 67.6282 29.7633 62.394 32.7456C59.4649 34.1174 56.685 34.8034 54.0541 34.8034H17.8121L15.5639 47.7763C15.538 47.9254 15.4495 48 15.2983 48H0.193691C0.0424936 48 -0.020184 47.9254 0.00565821 47.7763L8.24673 0.223672C8.30281 0.0745573 8.39133 0 8.51229 0ZM21.8668 11.4073L19.7891 23.3961H49.3179C52.4628 23.3961 54.6938 22.0391 56.0108 19.3253C56.2403 18.699 56.4067 18.0876 56.5101 17.4911C57.0115 14.5983 56.1201 12.6747 53.8361 11.7204C53.1163 11.5116 52.3633 11.4073 51.5771 11.4073H21.8668Z" stroke="#05C8FE" stroke-width="2" mask="url(#path-1-inside-1_10_17)"/>
<path d="M79.9077 0H95.0123C95.1583 0.0298229 95.221 0.10438 95.2003 0.223672L90.3782 28.0485C89.6494 32.2535 91.0337 34.9972 94.5309 36.2796C95.3362 36.5182 96.1018 36.6375 96.8275 36.6375H124.587L130.898 0.223672C130.954 0.0745573 131.043 0 131.164 0H146.314C146.46 0.0298229 146.522 0.10438 146.502 0.223672L138.261 47.7763C138.235 47.9254 138.146 48 137.995 48H86.1494C81.7344 48 78.1035 46.1808 75.2565 42.5424C73.6992 40.1864 73.1506 37.6813 73.6106 35.027L79.6421 0.223672C79.6982 0.0745573 79.7867 0 79.9077 0Z" stroke="#05C8FE" stroke-width="2" mask="url(#path-1-inside-1_10_17)"/>
<path d="M151.303 0H166.408C166.554 0.0298229 166.616 0.10438 166.596 0.223672L160.285 36.6375H211.36C211.511 36.6375 211.576 36.6971 211.555 36.8164L209.656 47.7763C209.63 47.9254 209.542 48 209.39 48H142.984C142.833 48 142.771 47.9254 142.796 47.7763L151.038 0.223672C151.094 0.0745573 151.182 0 151.303 0Z" stroke="#05C8FE" stroke-width="2" mask="url(#path-1-inside-1_10_17)"/>
<path d="M237.622 0H289.104C289.25 0.0298229 289.313 0.10438 289.292 0.223672L287.393 11.1836C287.367 11.3327 287.279 11.4073 287.127 11.4073H239.999C237.312 11.7353 235.779 12.9879 235.402 15.165C235.148 16.6263 235.759 17.7297 237.232 18.4753C237.68 18.6841 238.236 18.7884 238.901 18.7884H270.925C275.431 18.7884 279.117 20.548 281.985 24.0671C283.683 26.4828 284.294 29.0624 283.819 31.8062L283.245 35.1165C282.434 39.7987 279.011 43.5862 272.975 46.479C270.501 47.493 268.055 48 265.636 48H214.38C214.229 48 214.166 47.9254 214.192 47.7763L216.091 36.8164C216.142 36.6971 216.228 36.6375 216.349 36.6375H263.251C265.156 36.6375 266.616 35.8024 267.631 34.1323C267.876 33.4166 268.009 32.9991 268.029 32.8798C268.288 31.3886 267.695 30.2703 266.252 29.5247C265.805 29.3159 265.233 29.2116 264.537 29.2116H232.967C227.766 29.2116 223.758 27.2134 220.943 23.2171C219.657 21.0401 219.223 18.7437 219.642 16.3281L220.216 13.0177C220.975 8.63374 224.068 5.01025 229.493 2.14725C232.528 0.864865 235.237 0.149115 237.622 0Z" stroke="#05C8FE" stroke-width="2" mask="url(#path-1-inside-1_10_17)"/>
<path d="M322.489 0H337.956C338.212 0.268406 340.495 5.50233 344.806 15.7018C353.522 36.2498 358.057 46.986 358.411 47.9105L358.395 48H340.524C340.173 47.5825 336.241 38.4268 328.728 20.5331C327.8 18.3858 327.305 17.3122 327.245 17.3122C311.832 37.3234 303.921 47.5527 303.511 48H285.548L285.587 47.7763C309.312 16.9692 321.612 1.0438 322.489 0Z" stroke="#05C8FE" stroke-width="2" mask="url(#path-1-inside-1_10_17)"/>
<path d="M371.477 0H422.733C427.39 0 431.152 1.75955 434.019 5.27866C435.718 7.69431 436.324 10.3038 435.838 13.1072L434.334 21.7856C433.553 26.2889 430.397 30.0168 424.866 32.9692L422.768 33.8192L429.806 47.9105L429.564 48H411.148C410.782 47.493 408.536 43.0941 404.409 34.8034H380.777L378.528 47.7763C378.502 47.9254 378.414 48 378.263 48H363.158C363.007 48 362.944 47.9254 362.97 47.7763L371.211 0.223672C371.267 0.0745573 371.356 0 371.477 0ZM384.831 11.4073L382.754 23.3961H412.282C415.427 23.3961 417.658 22.0391 418.975 19.3253C419.205 18.699 419.371 18.0876 419.475 17.4911C419.976 14.5983 419.085 12.6747 416.801 11.7204C416.081 11.5116 415.328 11.4073 414.542 11.4073H384.831Z" stroke="#05C8FE" stroke-width="2" mask="url(#path-1-inside-1_10_17)"/>
<defs>
<filter id="filter0_i_10_17" x="0" y="0" width="436" height="48" filterUnits="userSpaceOnUse" color-interpolation-filters="sRGB">
<feFlood flood-opacity="0" result="BackgroundImageFix"/>
<feBlend mode="normal" in="SourceGraphic" in2="BackgroundImageFix" result="shape"/>
<feColorMatrix in="SourceAlpha" type="matrix" values="0 0 0 0 0 0 0 0 0 0 0 0 0 0 0 0 0 0 127 0" result="hardAlpha"/>
<feOffset/>
<feGaussianBlur stdDeviation="7"/>
<feComposite in2="hardAlpha" operator="arithmetic" k2="-1" k3="1"/>
<feColorMatrix type="matrix" values="0 0 0 0 0 0 0 0 0 0.16 0 0 0 0 1 0 0 0 1 0"/>
<feBlend mode="normal" in2="shape" result="effect1_innerShadow_10_17"/>
</filter>
</defs>
</svg>

<svg width="436" height="48" fill="none" xmlns="http://www.w3.org/2000/svg"><mask id="path-1-inside-1_10_17" fill="#fff"><path d="M8.512 0h51.166C65 0 69.058 2.147 71.85 6.442c1.059 2.266 1.413 4.413 1.061 6.441l-1.543 8.903c-.749 4.324-3.74 7.977-8.975 10.96-2.93 1.371-5.709 2.057-8.34 2.057H17.812l-2.248 12.973c-.026.15-.114.224-.266.224H.194c-.152 0-.214-.075-.188-.224L8.246.224C8.304.074 8.392 0 8.513 0zm13.355 11.407l-2.078 11.99h29.529c3.145 0 5.376-1.358 6.693-4.072.23-.626.396-1.237.5-1.834.5-2.893-.39-4.816-2.675-5.77a8.068 8.068 0 00-2.259-.314h-29.71zM79.908 0h15.104c.146.03.209.104.188.224l-4.822 27.825c-.729 4.205.656 6.948 4.153 8.23.805.24 1.57.358 2.296.358h27.76L130.898.225c.056-.15.145-.224.266-.224h15.15c.146.03.208.104.188.224l-8.241 47.552c-.026.15-.115.224-.266.224H86.149c-4.415 0-8.046-1.82-10.892-5.458-1.558-2.356-2.106-4.86-1.646-7.515L79.642.224c.056-.15.145-.224.266-.224zm71.395 0h15.105c.146.03.208.104.188.224l-6.311 36.413h51.075c.151 0 .216.06.195.18l-1.899 10.96c-.026.148-.114.223-.266.223h-66.406c-.151 0-.213-.075-.188-.224L151.038.224c.056-.15.144-.224.265-.224zm86.319 0h51.482c.146.03.209.104.188.224l-1.899 10.96c-.026.149-.114.223-.266.223h-47.128c-2.687.328-4.22 1.58-4.597 3.758-.254 1.461.357 2.565 1.83 3.31.448.21 1.004.313 1.669.313h32.024c4.506 0 8.192 1.76 11.06 5.28 1.698 2.415 2.309 4.994 1.834 7.738l-.574 3.31c-.811 4.683-4.234 8.47-10.27 11.363-2.474 1.014-4.92 1.521-7.339 1.521H214.38c-.151 0-.214-.075-.188-.224l1.899-10.96c.051-.119.137-.178.258-.178h46.902c1.905 0 3.365-.836 4.38-2.506.245-.715.378-1.133.398-1.252.259-1.491-.334-2.61-1.777-3.355-.447-.21-1.019-.313-1.715-.313h-31.57c-5.201 0-9.209-1.999-12.024-5.995-1.286-2.177-1.72-4.473-1.301-6.889l.574-3.31c.759-4.384 3.852-8.008 9.277-10.87 3.035-1.284 5.744-2 8.129-2.148zm84.867 0h15.467c.256.268 2.539 5.502 6.85 15.702 8.716 20.548 13.251 31.284 13.605 32.209l-.016.089h-17.871c-.351-.417-4.283-9.573-11.796-27.467-.928-2.147-1.423-3.22-1.483-3.22-15.413 20.01-23.324 30.24-23.734 30.687h-17.963l.039-.224C309.312 16.97 321.612 1.044 322.489 0zm48.988 0h51.256c4.657 0 8.419 1.76 11.286 5.279 1.699 2.415 2.305 5.025 1.819 7.828l-1.504 8.679c-.781 4.503-3.937 8.23-9.468 11.183l-2.098.85 7.038 14.091-.242.09h-18.416c-.366-.507-2.612-4.906-6.739-13.197h-23.632l-2.249 12.973c-.026.15-.114.224-.265.224h-15.105c-.151 0-.214-.075-.188-.224L371.211.224c.056-.15.145-.224.266-.224zm13.354 11.407l-2.077 11.99h29.528c3.145 0 5.376-1.358 6.693-4.072.23-.626.396-1.237.5-1.834.501-2.893-.39-4.816-2.674-5.77a8.07 8.07 0 00-2.259-.314h-29.711z"/></mask><g filter="url(#filter0_i_10_17)" fill="#05C8FE"><path d="M8.512 0h51.166C65 0 69.058 2.147 71.85 6.442c1.059 2.266 1.413 4.413 1.061 6.441l-1.543 8.903c-.749 4.324-3.74 7.977-8.975 10.96-2.93 1.371-5.709 2.057-8.34 2.057H17.812l-2.248 12.973c-.026.15-.114.224-.266.224H.194c-.152 0-.214-.075-.188-.224L8.246.224C8.304.074 8.392 0 8.513 0zm13.355 11.407l-2.078 11.99h29.529c3.145 0 5.376-1.358 6.693-4.072.23-.626.396-1.237.5-1.834.5-2.893-.39-4.816-2.675-5.77a8.068 8.068 0 00-2.259-.314h-29.71zM79.908 0h15.104c.146.03.209.104.188.224l-4.822 27.825c-.729 4.205.656 6.948 4.153 8.23.805.24 1.57.358 2.296.358h27.76L130.898.225c.056-.15.145-.224.266-.224h15.15c.146.03.208.104.188.224l-8.241 47.552c-.026.15-.115.224-.266.224H86.149c-4.415 0-8.046-1.82-10.892-5.458-1.558-2.356-2.106-4.86-1.646-7.515L79.642.224c.056-.15.145-.224.266-.224zm71.395 0h15.105c.146.03.208.104.188.224l-6.311 36.413h51.075c.151 0 .216.06.195.18l-1.899 10.96c-.026.148-.114.223-.266.223h-66.406c-.151 0-.213-.075-.188-.224L151.038.224c.056-.15.144-.224.265-.224zm86.319 0h51.482c.146.03.209.104.188.224l-1.899 10.96c-.026.149-.114.223-.266.223h-47.128c-2.687.328-4.22 1.58-4.597 3.758-.254 1.461.357 2.565 1.83 3.31.448.21 1.004.313 1.669.313h32.024c4.506 0 8.192 1.76 11.06 5.28 1.698 2.415 2.309 4.994 1.834 7.738l-.574 3.31c-.811 4.683-4.234 8.47-10.27 11.363-2.474 1.014-4.92 1.521-7.339 1.521H214.38c-.151 0-.214-.075-.188-.224l1.899-10.96c.051-.119.137-.178.258-.178h46.902c1.905 0 3.365-.836 4.38-2.506.245-.715.378-1.133.398-1.252.259-1.491-.334-2.61-1.777-3.355-.447-.21-1.019-.313-1.715-.313h-31.57c-5.201 0-9.209-1.999-12.024-5.995-1.286-2.177-1.72-4.473-1.301-6.889l.574-3.31c.759-4.384 3.852-8.008 9.277-10.87 3.035-1.284 5.744-2 8.129-2.148zm84.867 0h15.467c.256.268 2.539 5.502 6.85 15.702 8.716 20.548 13.251 31.284 13.605 32.209l-.016.089h-17.871c-.351-.417-4.283-9.573-11.796-27.467-.928-2.147-1.423-3.22-1.483-3.22-15.413 20.01-23.324 30.24-23.734 30.687h-17.963l.039-.224C309.312 16.97 321.612 1.044 322.489 0zm48.988 0h51.256c4.657 0 8.419 1.76 11.286 5.279 1.699 2.415 2.305 5.025 1.819 7.828l-1.504 8.679c-.781 4.503-3.937 8.23-9.468 11.183l-2.098.85 7.038 14.091-.242.09h-18.416c-.366-.507-2.612-4.906-6.739-13.197h-23.632l-2.249 12.973c-.026.15-.114.224-.265.224h-15.105c-.151 0-.214-.075-.188-.224L371.211.224c.056-.15.145-.224.266-.224zm13.354 11.407l-2.077 11.99h29.528c3.145 0 5.376-1.358 6.693-4.072.23-.626.396-1.237.5-1.834.501-2.893-.39-4.816-2.674-5.77a8.07 8.07 0 00-2.259-.314h-29.711z"/></g><path d="M8.512 0h51.166C65 0 69.058 2.147 71.85 6.442c1.059 2.266 1.413 4.413 1.061 6.441l-1.543 8.903c-.749 4.324-3.74 7.977-8.975 10.96-2.93 1.371-5.709 2.057-8.34 2.057H17.812l-2.248 12.973c-.026.15-.114.224-.266.224H.194c-.152 0-.214-.075-.188-.224L8.246.224C8.304.074 8.392 0 8.513 0zm13.355 11.407l-2.078 11.99h29.529c3.145 0 5.376-1.358 6.693-4.072.23-.626.396-1.237.5-1.834.5-2.893-.39-4.816-2.675-5.77a8.068 8.068 0 00-2.259-.314h-29.71zM79.908 0h15.104c.146.03.209.104.188.224l-4.822 27.825c-.729 4.205.656 6.948 4.153 8.23.805.24 1.57.358 2.296.358h27.76L130.898.225c.056-.15.145-.224.266-.224h15.15c.146.03.208.104.188.224l-8.241 47.552c-.026.15-.115.224-.266.224H86.149c-4.415 0-8.046-1.82-10.892-5.458-1.558-2.356-2.106-4.86-1.646-7.515L79.642.224c.056-.15.145-.224.266-.224zm71.395 0h15.105c.146.03.208.104.188.224l-6.311 36.413h51.075c.151 0 .216.06.195.18l-1.899 10.96c-.026.148-.114.223-.266.223h-66.406c-.151 0-.213-.075-.188-.224L151.038.224c.056-.15.144-.224.265-.224zm86.319 0h51.482c.146.03.209.104.188.224l-1.899 10.96c-.026.149-.114.223-.266.223h-47.128c-2.687.328-4.22 1.58-4.597 3.758-.254 1.461.357 2.565 1.83 3.31.448.21 1.004.313 1.669.313h32.024c4.506 0 8.192 1.76 11.06 5.28 1.698 2.415 2.309 4.994 1.834 7.738l-.574 3.31c-.811 4.683-4.234 8.47-10.27 11.363-2.474 1.014-4.92 1.521-7.339 1.521H214.38c-.151 0-.214-.075-.188-.224l1.899-10.96c.051-.119.137-.178.258-.178h46.902c1.905 0 3.365-.836 4.38-2.506.245-.715.378-1.133.398-1.252.259-1.491-.334-2.61-1.777-3.355-.447-.21-1.019-.313-1.715-.313h-31.57c-5.201 0-9.209-1.999-12.024-5.995-1.286-2.177-1.72-4.473-1.301-6.889l.574-3.31c.759-4.384 3.852-8.008 9.277-10.87 3.035-1.284 5.744-2 8.129-2.148zm84.867 0h15.467c.256.268 2.539 5.502 6.85 15.702 8.716 20.548 13.251 31.284 13.605 32.209l-.016.089h-17.871c-.351-.417-4.283-9.573-11.796-27.467-.928-2.147-1.423-3.22-1.483-3.22-15.413 20.01-23.324 30.24-23.734 30.687h-17.963l.039-.224C309.312 16.97 321.612 1.044 322.489 0zm48.988 0h51.256c4.657 0 8.419 1.76 11.286 5.279 1.699 2.415 2.305 5.025 1.819 7.828l-1.504 8.679c-.781 4.503-3.937 8.23-9.468 11.183l-2.098.85 7.038 14.091-.242.09h-18.416c-.366-.507-2.612-4.906-6.739-13.197h-23.632l-2.249 12.973c-.026.15-.114.224-.265.224h-15.105c-.151 0-.214-.075-.188-.224L371.211.224c.056-.15.145-.224.266-.224zm13.354 11.407l-2.077 11.99h29.528c3.145 0 5.376-1.358 6.693-4.072.23-.626.396-1.237.5-1.834.501-2.893-.39-4.816-2.674-5.77a8.07 8.07 0 00-2.259-.314h-29.711z" stroke="#05C8FE" stroke-width="2" mask="url(#path-1-inside-1_10_17)"/><defs><filter id="filter0_i_10_17" x="0" y="0" width="436" height="48" filterUnits="userSpaceOnUse" color-interpolation-filters="sRGB"><feFlood flood-opacity="0" result="BackgroundImageFix"/><feBlend in="SourceGraphic" in2="BackgroundImageFix" result="shape"/><feColorMatrix in="SourceAlpha" values="0 0 0 0 0 0 0 0 0 0 0 0 0 0 0 0 0 0 127 0" result="hardAlpha"/><feOffset/><feGaussianBlur stdDeviation="7"/><feComposite in2="hardAlpha" operator="arithmetic" k2="-1" k3="1"/><feColorMatrix values="0 0 0 0 0 0 0 0 0 0.16 0 0 0 0 1 0 0 0 1 0"/><feBlend in2="shape" result="effect1_innerShadow_10_17"/></filter></defs></svg>
